projects/oblique/icons/ChartPie.svg

<?xml version="1.0" encoding="UTF-8"?><svg id="a" xmlns="http://www.w3.org/2000/svg" viewBox="0 0 24 24"><path d="M19.99316,6.33301l-.5127-.71973-.62695.62305c-.69336.69043-5.21826,5.21484-5.21826,5.21484l-.53027.53027,6.37158,6.37207.51465-.72168c2.4082-3.37988,2.40869-7.91992.00195-11.29883ZM19.24902,16.00488l-.66406-.66406-3.35889-3.35938c.94824-.94824,2.93701-2.93652,4.02441-4.02148,1.39697,2.49512,1.39648,5.54883-.00146,8.04492ZM12.57422,13.57227l-.53027-.53027-6.37354,6.37207.72314.51562c1.68994,1.2041,3.67041,1.80566,5.65088,1.80566,1.97949,0,3.95947-.60156,5.64844-1.80469l.7207-.51367-.62451-.62695c-.69043-.69336-5.21484-5.21777-5.21484-5.21777ZM8.02051,19.1875l4.02344-4.02441c.94824.94824,2.93652,2.93652,4.02246,4.02441-2.49512,1.39844-5.54883,1.39648-8.0459,0ZM11.07422,11.89063l.21973-.21973V2.2207l-.87402.14648c-.27783.0459-.55371.10547-.82764.17578-1.67432.43359-3.21045,1.31348-4.44238,2.54395-3.37988,3.37988-3.82373,8.65527-1.05518,12.54297l.5127.71973.62695-.62305c.73926-.73438,5.83984-5.83594,5.83984-5.83594ZM4.8374,16.00391c-1.79248-3.19043-1.27295-7.20996,1.37305-9.85645.99951-.99805,2.23535-1.72363,3.5835-2.10449v7.00684c-.80273.80273-3.6001,3.59961-4.95654,4.9541ZM17.69482,4.03418c-1.18945-.84766-2.58154-1.4248-4.02637-1.66699l-.87451-.14746v7.95117l5.62207-5.62305-.72119-.51367ZM14.29395,6.54981v-2.50684c.61719.1748,1.21387.42188,1.77246.7334l-1.77246,1.77344Z"/></svg>

<svg xmlns="http://www.w3.org/2000/svg" viewBox="0 0 24 24"><title>ChartPie</title><path d="M19.99316,6.333l-.51269-.71973-.627.62305c-.69336.69043-5.21827,5.21484-5.21827,5.21484l-.53027.53028,6.37158,6.37207.51465-.72168A9.74082,9.74082,0,0,0,19.99316,6.333ZM19.249,16.00488l-.66406-.66406-3.35889-3.35937c.94825-.94825,2.937-2.93653,4.02442-4.02149A8.2429,8.2429,0,0,1,19.249,16.00488Z" fill="#171717"/><path d="M12.57422,13.57227,12.044,13.042,5.67041,19.41406l.72314.51563a9.74349,9.74349,0,0,0,11.29932.001l.7207-.51368L17.78906,18.79C17.09863,18.09668,12.57422,13.57227,12.57422,13.57227ZM8.02051,19.1875,12.044,15.16309c.94824.94824,2.93652,2.93652,4.02246,4.02441A8.24476,8.24476,0,0,1,8.02051,19.1875Z" fill="#171717"/><path d="M11.07422,11.89063l.21973-.21973V2.2207l-.874.14649c-.27783.0459-.55371.10547-.82763.17578A9.75451,9.75451,0,0,0,4.09473,17.62988l.51269.71973.627-.623C5.97363,16.99219,11.07422,11.89063,11.07422,11.89063ZM4.8374,16.00391A8.25528,8.25528,0,0,1,9.794,4.043v7.00684C8.99121,11.85254,6.19385,14.64942,4.8374,16.00391Z" fill="#171717"/><path d="M17.69482,4.03418a9.7567,9.7567,0,0,0-4.02636-1.667L12.794,2.21973V10.1709l5.62207-5.623ZM14.294,6.54981V4.043a8.27487,8.27487,0,0,1,1.77246.7334Z" fill="#171717"/></svg>
